X: 5
T: Brendan Tonra's
R: jig
M: 6/8
L: 1/8
K: Dmaj
E|F3 AFE|EDB ABd|FEF GFG|ABF AFE|
F3 AFE|EDB ABd|FEF GFG|BAF D2:|
e|f2d dB/c/d |edc Bcd|f2d dB/c/d|AdF Ade|
f2d dB/c/d|edc Bcd|faf gec|dAF D2:|


Tune 451	Setting 13330

